X:18601
T:Recruiting Officer, The
R:Jig
C:Trad. Playford 1701
O:England
Z:Paul Hardy's Annex Tunebook 2015 (see www.paulhardy.net). Creative Commons cc by-nc-sa licenced.
M:6/8
L:1/8
Q:3/8=100
K:D
A|"D"def "A"edc|"D"d3 A2F|"G"GAB "D"AGF|"A"E3A,3|
"D"def "A"edc|"G"BgB "D"A2G|FdF "A"Edc|"D"d3-d2:|
|:g|"D"fga "A"ecA|"G"g3 "D"f3|"G"Bcd "Em"efd|"A"c3 Aag|
"D"fed "A"cac|"G"BgB "D"A2G|FdF "A"Edc|"D"d3-d2:|

